X:198
M:C|
L:1/8
Q:1/2=90
K:G
d2 Be A3 c|BGEA{G}F2 ED|G2G2 G>AB>c|d2 cB A4|d2 Be A3 c|
c2F2B2e2|BAGF E3 F|G2G2 e3d|c>BA>G F3 D|d2 ce A3 f|B2TA2 G4:|

